X: 24820
T: Maggie Pickins
R: strathspey
M: 4/4
K: Gmajor
|:G>ED>E G>AB>c|d2 d>B A>G (3EGE|G>ED>E G>AB>c|d>B (3ABA G2 G2:|
|:g>fd>f g>fd>c|(3ABc B>A G>F D2|1 g>fd>f g>fd>c|(3ABc B>A G2 G2:|
[2 G>ED>E G>AB>c|d>B (3ABA G2 G2||

